shader_type spatial;

void vertex() {
	// Called for every vertex the material is visible on.
}

void fragment() {
	// Called for every pixel the material is visible on.
}

//void light() {
//	// Called for every pixel for every light affecting the material.
//	// Uncomment to replace the default light processing function with this one.
//}
shader_type spatial;

uniform vec4 albedo : source_color = vec4(1.0);
uniform vec4 wire_color : source_color = vec4(0.0, 0.0, 0.0, 1.0);
uniform float wire_width : hint_range(0.0, 40.0) = 5.0;
uniform float wire_smoothness : hint_range(0.0, 0.1) = 0.01;

varying vec3 barys;

void vertex() {
	int index = VERTEX_ID % 3;
	switch (index) {
		case 0:
			barys = vec3(1.0, 0.0, 0.0);
			break;
		case 1:
			barys = vec3(0.0, 1.0, 0.0);
			break;
		case 2:
			barys = vec3(0.0, 0.0, 1.0);
			break;
	}
}

void fragment() {
	vec3 deltas = fwidth(barys);
	vec3 barys_s = smoothstep(deltas * wire_width - wire_smoothness, deltas * wire_width + wire_smoothness, barys);
	float wires = min(barys_s.x, min(barys_s.y, barys_s.z));
	ALBEDO = mix(wire_color.rgb, albedo.rgb, wires);
}